nextApp/public/icons/link-wh.svg

<svg width="41" height="41" viewBox="0 0 41 41" fill="none" xmlns="http://www.w3.org/2000/svg">
<g clip-path="url(#clip0_312_326)">
<path fill-rule="evenodd" clip-rule="evenodd" d="M20.5 12.5C16.0817 12.5 12.5 16.0817 12.5 20.5C12.5 21.9838 12.9031 23.3706 13.6051 24.56L14.1739 25.2778L13.4772 27.6366L15.7978 26.9886L16.1755 27.2318C17.4219 28.0343 18.905 28.5 20.5 28.5C24.9183 28.5 28.5 24.9183 28.5 20.5C28.5 16.0817 24.9183 12.5 20.5 12.5ZM10.5 20.5C10.5 14.9772 14.9772 10.5 20.5 10.5C26.0229 10.5 30.5 14.9772 30.5 20.5C30.5 26.0228 26.0229 30.5 20.5 30.5C18.6736 30.5 16.9591 30.0095 15.484 29.1527L10.5359 30.5346L11.9619 25.7065L11.9561 25.6993L11.9229 25.6439C11.0193 24.1403 10.5 22.3793 10.5 20.5Z" fill="white"/>
<path d="M25.2354 21.9923C25.1965 21.9736 23.7384 21.2556 23.4793 21.1623C23.3735 21.1243 23.2602 21.0873 23.1397 21.0873C22.9428 21.0873 22.7774 21.1854 22.6486 21.3781C22.503 21.5946 22.062 22.11 21.9258 22.2639C21.908 22.2843 21.8837 22.3086 21.8692 22.3086C21.8561 22.3086 21.6305 22.2156 21.5622 22.186C19.9981 21.5065 18.8109 19.8727 18.6481 19.5972C18.6248 19.5576 18.6239 19.5396 18.6237 19.5396C18.6294 19.5186 18.682 19.4659 18.7091 19.4387C18.7885 19.3601 18.8746 19.2565 18.9578 19.1564C18.9972 19.1089 19.0367 19.0614 19.0755 19.0165C19.1963 18.876 19.25 18.7669 19.3124 18.6406L19.345 18.5749C19.4972 18.2725 19.3672 18.0173 19.3252 17.9349C19.2907 17.866 18.6751 16.3801 18.6096 16.224C18.4522 15.8473 18.2443 15.6719 17.9552 15.6719C17.9284 15.6719 17.9552 15.6719 17.8428 15.6767C17.7058 15.6825 16.96 15.7806 16.6303 15.9885C16.2806 16.2089 15.6891 16.9117 15.6891 18.1475C15.6891 19.2598 16.3949 20.31 16.698 20.7094C16.7055 20.7195 16.7193 20.7399 16.7394 20.7693C17.9 22.4642 19.3468 23.7203 20.8135 24.3062C22.2255 24.8702 22.8941 24.9354 23.2743 24.9354C23.434 24.9354 23.5619 24.9229 23.6747 24.9118L23.7463 24.905C24.2341 24.8617 25.306 24.3063 25.5498 23.6287C25.7419 23.095 25.7926 22.5119 25.6648 22.3002C25.5772 22.1564 25.4264 22.0839 25.2354 21.9923Z" fill="white"/>
</g>
<circle cx="20.5" cy="20.5" r="20" stroke="white"/>
<defs>
<clipPath id="clip0_312_326">
<rect width="24" height="24" fill="white" transform="translate(8.5 8.5)"/>
</clipPath>
</defs>
</svg>

<svg xmlns="http://www.w3.org/2000/svg" width="41" height="41" fill="none" viewBox="0 0 41 41"><g fill="#fff" clip-path="url(#a)"><path fill-rule="evenodd" d="M20.5 12.5a8 8 0 0 0-6.895 12.06l.569.718-.697 2.359 2.32-.648.378.243A8 8 0 1 0 20.5 12.5m-10 8c0-5.523 4.477-10 10-10s10 4.477 10 10-4.477 10-10 10c-1.826 0-3.54-.49-5.016-1.347l-4.948 1.382 1.426-4.829-.006-.007-.033-.055A9.96 9.96 0 0 1 10.5 20.5" clip-rule="evenodd"/><path d="M25.235 21.992c-.038-.018-1.497-.736-1.756-.83a1 1 0 0 0-.34-.075q-.296 0-.49.291c-.146.217-.587.732-.723.886-.018.02-.042.045-.057.045-.013 0-.238-.093-.307-.123-1.564-.68-2.751-2.313-2.914-2.589-.023-.04-.024-.057-.024-.057.005-.021.058-.074.085-.101.08-.079.166-.183.249-.283l.118-.14c.12-.14.174-.25.236-.375l.033-.066a.68.68 0 0 0-.02-.64c-.034-.069-.65-1.555-.715-1.711-.158-.377-.366-.552-.655-.552-.027 0 0 0-.112.005-.137.005-.883.104-1.213.312-.35.22-.94.923-.94 2.159 0 1.112.705 2.162 1.008 2.561l.041.06c1.161 1.695 2.608 2.951 4.075 3.537 1.412.564 2.08.63 2.46.63.16 0 .288-.013.4-.024l.072-.007c.488-.043 1.56-.599 1.804-1.276.192-.534.243-1.117.115-1.329-.088-.144-.239-.216-.43-.308"/></g><circle cx="20.5" cy="20.5" r="20" stroke="#fff"/><defs><clipPath id="a"><path fill="#fff" d="M8.5 8.5h24v24h-24z"/></clipPath></defs></svg>
